images/common/print.svg

<svg id="Layer_1" data-name="Layer 1" xmlns="http://www.w3.org/2000/svg" viewBox="0 0 48 48"><defs><style>.cls-1{fill:#2a3052}</style></defs><title>print_outline</title><path class="cls-1" d="M38.95 45.74H9.05v-9.05H0V21.74a8.17 8.17 0 0 1 8.16-8.16h31.68A8.17 8.17 0 0 1 48 21.74v14.95h-9.05zM11.79 43h24.42v-9.06h9.05v-12.2a5.42 5.42 0 0 0-5.42-5.42H8.16a5.42 5.42 0 0 0-5.42 5.42v12.2h9.05zm22.63-1.78H13.58V27.15h20.84zm-18.1-2.74h15.36V29.9H16.32zm23.52-13.1a3.63 3.63 0 1 1 3.63-3.63 3.64 3.64 0 0 1-3.63 3.62zm0-4.53a.89.89 0 1 0 .89.89.9.9 0 0 0-.89-.89zm-.89-8.56H9.05v-10h29.9zM11.79 9.55h24.42V5H11.79z"/></svg>

<svg id="Layer_1" data-name="Layer 1" xmlns="http://www.w3.org/2000/svg" viewBox="0 0 48 48"><defs><style>.cls-1{fill:#2a3052;}</style></defs><title>print_outline</title><path class="cls-1" d="M38.95,45.74H9.05V36.69H0V21.74a8.17,8.17,0,0,1,8.16-8.16H39.84A8.17,8.17,0,0,1,48,21.74V36.69H38.95ZM11.79,43H36.21V33.94h9.05V21.74a5.42,5.42,0,0,0-5.42-5.42H8.16a5.42,5.42,0,0,0-5.42,5.42V33.94h9.05Zm22.63-1.78H13.58V27.15H34.42Zm-18.1-2.74H31.68V29.9H16.32Zm23.52-13.1a3.63,3.63,0,1,1,3.63-3.63A3.64,3.64,0,0,1,39.84,25.37Zm0-4.53a.89.89,0,1,0,.89.89A.9.9,0,0,0,39.84,20.85Zm-.89-8.56H9.05v-10h29.9ZM11.79,9.55H36.21V5H11.79Z"/></svg>
